resources/svg/paws-o.svg

<svg xmlns="http://www.w3.org/2000/svg" viewBox="0 0 15 15" fill="none"><path d="M1.42502 2.11765L1.73184 2.76471M0.75 4.64706L1.05682 5.29412M6.33411 2.11765L6.64092 2.82353M3.87955 1L4.18637 1.64706M11.1204 6.76471L10.8136 7.41177M8.66589 7.88235L8.35907 8.58824M14.25 10.4118L13.9432 11.0588M13.575 7.88235L13.2682 8.52941M3.94094 4.2353C4.37048 4.05882 4.86139 4.05882 5.29094 4.29412L6.94776 5.11765C7.50003 5.41177 7.68412 6.11765 7.25457 6.58824C7.07048 6.82353 6.76366 6.94118 6.45685 6.94118H5.72048C5.41367 6.94118 5.10685 7.05882 4.92276 7.29412L4.49321 7.82353C4.30912 8.05883 4.0023 8.17647 3.69548 8.17647C3.08185 8.17647 2.59094 7.58824 2.71366 7L3.08185 5.2353C3.20457 4.82353 3.51139 4.41177 3.94094 4.2353ZM11.0591 10C11.4886 10.1765 11.7955 10.5882 11.9182 11.0588L12.2864 12.8235C12.4091 13.4118 11.9796 14 11.3046 14C10.9977 14 10.6909 13.8824 10.5068 13.6471L10.0773 13.1176C9.89319 12.8824 9.58637 12.7647 9.27955 12.7647H8.54319C8.23637 12.7647 7.92955 12.6471 7.74546 12.4118C7.37728 11.9412 7.50001 11.2353 8.05228 10.9412L9.7091 10.1176C10.0773 9.82353 10.6296 9.7647 11.0591 10Z" stroke="black" stroke-miterlimit="10" stroke-linecap="square" stroke-linejoin="round"/></svg>

<svg xmlns="http://www.w3.org/2000/svg" viewBox="0 0 15 15" fill="none"><path d="M1.425 2.118l.307.647M.75 4.647l.307.647m5.277-3.176l.307.706M3.88 1l.306.647m6.934 5.118l-.306.647m-2.148.47l-.307.706m5.891 1.824l-.307.647m-.368-3.177l-.307.647M3.941 4.235c.43-.176.92-.176 1.35.06l1.657.823c.552.294.736 1 .307 1.47-.185.236-.491.353-.798.353H5.72c-.306 0-.613.118-.797.353l-.43.53c-.184.235-.49.352-.798.352-.613 0-1.104-.588-.981-1.176l.368-1.765c.123-.411.43-.823.859-1zM11.059 10c.43.177.737.588.86 1.059l.367 1.764A.976.976 0 0111.305 14c-.307 0-.614-.118-.798-.353l-.43-.53c-.184-.235-.49-.352-.797-.352h-.737c-.307 0-.613-.118-.798-.353a.978.978 0 01.307-1.47l1.657-.824a1.25 1.25 0 011.35-.118z" stroke="currentColor" stroke-miterlimit="10" stroke-linecap="square" stroke-linejoin="round"/></svg>
